X:1
T:Minuet (from the opera "don giovanni")
C:W A Mozart
%%score { 1 | 2 }
L:1/8
Q:1/4=100
M:3/4
I:linebreak $
K:Emin
V:1 treble 
V:2 bass 
L:1/16
V:1
"^Moderato" !1!!2![Bd]2 [Bd][Bd][Bd][Bd] | ([Bd]>g) [Bd]2 z2 | !2!!4![Ac]2 [Ac][Ac][Ac][Ac] | %3
 ([Bd]/[Ac]/[GB]/[Ac]/ [GB]2) z2 |$ [EG^c]2 [EGc][EGc][EGc][EGc] | %5
 (!3![Fd]>!4![Ge] [Af]2) z !4![Af] | ([Bg]>!4!e) d2 ^c2 |!fine! d4 z2 :: %8
 !1!!2!!4![Adf]2 [Adf][Adf][Adf][Adf] |$ ([Bg]>!2!d !1!!3![Bd]2) z2 | %10
 !2!!4![Ac]2 [Ac][Ac][Ac][Ac] | ([GB]>[Ac] [Bd]4) |$ (!2!e>f !4!g)!3!g!2!g!1!g | %13
[I:staff +1] (!5!B,/G/D/G/) (!5!G,/D/B,/D/) (G,/D/B,/D/) | %14
!>(![I:staff -1] ([ec']>[ca]) [Bg]2 !4![Af]2!>)! |!D.C.! !5!g2 z2 z2 :| %16
V:2
 !5!G,,4 !4!B,,4 !2!D,4 | !1!G,6 G,,2B,,2G,,2 | !2!D,4 !1!F,4 !4!D,4 | !1!G,4- G,2G,2G,2!2!G,2 |$ %4
 !1!A,4 !1!A,2!2!A,2!3!A,2!4!A,2 |!<(! !1!D4- D2D,2F,2D,2!<)! |!>(! G,4 [A,F]4!>)! [A,EG]4 | %7
 [DF]4 A,4 D,4 ::"^S," (D,DCD) (D,DCD) (D,DCD) |$ (!5!G,DB,D) (G,DB,D) (G,DB,)D | %10
 (F,DA,D) (F,DA,D) (F,DA,D) | (G,DB,D) (G,DB,D) (G,DB,D) |$[K:treble]!<(! (CGEG) (C GEG) (CGEG) | %13
[I:staff -1] (!2!g2>a2[K:bass] b4)!<)! z2 [db]2 |[I:staff +1] (!2!C4 !1!D4 !5!D,4) | %15
"^poco rit." (!1!G,4 !2!D,4 !5!G,,4) :| %16

